!!!OTL: Herr und Knecht (4-18), S. 27
!!!id: P0579
**kern
*clefG2
*k[f#c#g#]
*E:
{8B
8e
8f#
=1
4g#
4f#
8e
8g#
=2
4f#}
8r
=3
{8e
8e
16g#
16b
=4
4b
8b
8ee
8cc#
8b
=5
4.a}
=6
{8g#
16e
8f#
8g#
8f#
16e
=7
4a
4b
16e
8f#
8g#
8f#
16e
=8
4.e}
==
*-
!!!minrhy: 16
!!!meters: 3/4 ]  ZZ[3
!!!cut: Herr und Knecht (4-18), S. 27
!!!reg: Lothringen
!!!trd: PINCK, Louis: Verklingende Weisen Bd 4, Kassel 1939
!!!rhy1: X_X_X_  X__X__X_X_  X__0_
!!!rhy2: X_X_XX  X__X_X_X_X_  X__.
!!!key: P0579  16  E 3/4 ]  ZZ[3
!!!mod: SECHSTONSKALA DUR ?]  AMBITUS[11
!!!kad: 241
!!!akz: 32_54_41_
!!!fot: 'a__b__as"
!!!for: 'a__b__c__
!!!fok: '/__^a_^d_
!! PHRAS[AUFTAKTIG]
!!!fkt: Brautlied
!!!bem: Herr gibt Knecht Tochter
!! LOTH VKL
!! PR[8] 2K[4] 2G[27] 3K[6] 3G[6] 4A[4] 4Ü[0] 5A[0] 6K[0] 6G[0]
!! 7K[0] 7G[0] 8A[0] MEHR[0] SI[46] ABS[52] SR[31] SP[15]
!! ST[0] 2k[6] 2g[33] 3k[0] 3g[2] 4d[6] 4ü[0] 5d[0] 6k[0] 6g[0]
!! 7k[0] 7g[0] 8d[0] mehr[0] si[46] dm[0] sr[38] sp[8]
!! 1F[42] 2F[38] 3F[4] 4F[0] LF[0] 2P[8] 3P[9] 4P[0] TRI[0] DF[5] AB[53]
!! TF[0] U3K[0] U3[0] U4[0] U4Ü[0] U5[4] U6K[0] U6[0] U7K[0] U7[0]
!! N1[19] N2K[0] N2[19] N3K[0] N3[21] N4[17] N4Ü[0] N5[17] N6K[0] N6[4]
!!!n7k: 0] N7[0] O1[0] O2K[0] O2[0] O3K[0] O3[0] HÖ[0
